assets/dude/That–Kitty.svg

<svg width="383" height="101" viewBox="0 0 383 101" fill="none" xmlns="http://www.w3.org/2000/svg">
<path d="M87.8511 0.73999C79.7311 0.73999 76.2311 7.59999 71.3311 7.59999C66.4311 7.59999 67.8311 3.54 65.1711 3.54C62.3711 3.54 63.9111 7.59999 59.0111 7.59999C55.5111 7.59999 52.7111 3.95999 45.0111 3.95999C37.4511 3.95999 34.3711 7.59999 31.0111 7.59999C26.1111 7.59999 27.6511 3.54 24.8511 3.54C22.0511 3.54 23.5911 7.59999 18.6911 7.59999C13.7911 7.59999 10.5711 0.73999 2.17113 0.73999C1.89113 0.73999 0.911133 0.73999 0.911133 1.99999C0.911133 3.25999 3.43113 23.28 3.43113 35.74V47.08C3.43113 47.78 3.99113 48.34 4.69113 48.34H12.2511C12.9511 48.34 13.5111 47.78 13.5111 47.08V45.82C13.5111 40.92 17.4311 37 22.3311 37H38.7111C39.4111 37 39.9711 37.56 39.9711 38.26V63.46C39.9711 64.16 39.4111 64.72 38.7111 64.72H24.8511C24.1511 64.72 23.5911 65.28 23.5911 65.98C23.5911 78.44 21.0711 98.46 21.0711 99.72C21.0711 100.98 22.1911 100.98 22.3311 100.98C30.4511 100.98 33.9511 94.12 38.8511 94.12C43.7511 94.12 42.2111 98.18 45.0111 98.18C47.6711 98.18 46.2711 94.12 51.1711 94.12C56.0711 94.12 59.2911 100.98 67.6911 100.98C67.8311 100.98 68.9511 100.98 68.9511 99.72C68.9511 98.46 66.4311 78.44 66.4311 65.98C66.4311 65.28 65.8711 64.72 65.1711 64.72H51.3111C50.6111 64.72 50.0511 64.16 50.0511 63.46V38.26C50.0511 37.56 50.6111 37 51.3111 37H67.6911C72.5911 37 76.5111 40.92 76.5111 45.82V47.08C76.5111 47.78 77.0711 48.34 77.7711 48.34H85.3311C86.0311 48.34 86.5911 47.78 86.5911 47.08V35.74C86.5911 23.28 89.1111 3.25999 89.1111 1.99999C89.1111 0.73999 87.9911 0.73999 87.8511 0.73999Z" fill="#FF1C31"/>
<path d="M192.28 64.72H178.42C177.72 64.72 177.16 64.16 177.16 63.46V38.26C177.16 37.56 177.72 37 178.42 37H192.28C192.98 37 193.54 36.44 193.54 35.74C193.54 23.28 196.06 3.25999 196.06 1.99999C196.06 0.73999 195.08 0.73999 194.8 0.73999C186.68 0.73999 183.18 7.59999 178.28 7.59999C173.38 7.59999 174.92 3.54 172.12 3.54C169.32 3.54 170.86 7.59999 165.96 7.59999C161.06 7.59999 157.84 0.73999 149.44 0.73999C149.16 0.73999 148.18 0.73999 148.18 1.99999C148.18 3.25999 150.7 23.28 150.7 35.74C150.7 36.44 151.26 37 151.96 37H165.82C166.52 37 167.08 37.56 167.08 38.26V45.82C167.08 46.52 166.52 47.08 165.82 47.08H125.5C124.8 47.08 124.24 46.52 124.24 45.82V38.26C124.24 37.56 124.8 37 125.5 37H139.36C140.06 37 140.62 36.44 140.62 35.74C140.62 23.28 143.14 3.25999 143.14 1.99999C143.14 0.73999 142.02 0.73999 141.88 0.73999C133.76 0.73999 130.26 7.59999 125.36 7.59999C120.46 7.59999 122 3.54 119.2 3.54C116.4 3.54 117.94 7.59999 113.04 7.59999C108.14 7.59999 104.92 0.73999 96.5202 0.73999C96.2402 0.73999 95.2602 0.73999 95.2602 1.99999C95.2602 3.25999 97.7802 23.28 97.7802 35.74C97.7802 36.44 98.3402 37 99.0402 37H112.9C113.6 37 114.16 37.56 114.16 38.26V63.46C114.16 64.16 113.6 64.72 112.9 64.72H99.0402C98.3402 64.72 97.7802 65.28 97.7802 65.98C97.7802 78.44 95.2602 98.46 95.2602 99.72C95.2602 100.98 96.2402 100.98 96.5202 100.98C104.64 100.98 108.14 94.12 113.04 94.12C117.94 94.12 116.4 98.18 119.2 98.18C122 98.18 120.46 94.12 125.36 94.12C130.26 94.12 133.48 100.98 141.88 100.98C142.02 100.98 143.14 100.98 143.14 99.72C143.14 98.46 140.62 78.44 140.62 65.98C140.62 65.28 140.06 64.72 139.36 64.72H125.5C124.8 64.72 124.24 64.16 124.24 63.46V55.9C124.24 55.2 124.8 54.64 125.5 54.64H165.82C166.52 54.64 167.08 55.2 167.08 55.9V63.46C167.08 64.16 166.52 64.72 165.82 64.72H151.96C151.26 64.72 150.7 65.28 150.7 65.98C150.7 78.44 148.18 98.46 148.18 99.72C148.18 100.98 149.16 100.98 149.44 100.98C157.56 100.98 161.06 94.12 165.96 94.12C170.86 94.12 169.32 98.18 172.12 98.18C174.92 98.18 173.38 94.12 178.28 94.12C183.18 94.12 186.4 100.98 194.8 100.98C195.08 100.98 196.06 100.98 196.06 99.72C196.06 98.46 193.54 78.44 193.54 65.98C193.54 65.28 192.98 64.72 192.28 64.72Z" fill="#FF1C31"/>
<path d="M300.031 65.98C300.031 65.28 299.471 64.72 298.771 64.72H287.011C286.311 64.72 285.611 64.72 284.911 63.6L268.811 38.4C268.811 38.4 268.531 37.98 268.531 37.56C268.531 37.28 268.811 37 269.371 37H272.311C273.011 37 273.571 36.44 273.571 35.74C273.571 23.28 276.091 3.25999 276.091 1.99999C276.091 0.73999 274.971 0.73999 274.831 0.73999C266.711 0.73999 263.211 7.59999 258.311 7.59999C253.411 7.59999 254.951 3.54 252.151 3.54C249.351 3.54 250.891 7.59999 245.991 7.59999C241.091 7.59999 237.871 0.73999 229.471 0.73999C229.191 0.73999 228.211 0.73999 228.211 1.99999C228.211 3.25999 230.731 23.28 230.731 35.74C230.731 36.44 231.291 37 231.991 37H236.611C237.171 37 237.451 37.28 237.451 37.56C237.451 37.98 237.171 38.4 237.171 38.4L221.491 63.04C220.791 64.16 220.371 64.72 219.671 64.72H205.531C204.831 64.72 204.271 65.28 204.271 65.98C204.271 78.44 201.751 98.46 201.751 99.72C201.751 100.98 202.731 100.98 203.011 100.98C211.131 100.98 214.631 94.12 219.531 94.12C224.431 94.12 222.891 98.18 225.691 98.18C228.491 98.18 226.951 94.12 231.851 94.12C236.751 94.12 239.971 100.98 248.371 100.98C248.511 100.98 249.631 100.98 249.631 99.72C249.631 98.46 247.111 78.44 247.111 65.98C247.111 65.28 246.551 64.72 245.851 64.72H232.551C231.991 64.72 231.571 64.72 231.571 64.44C231.571 64.02 231.851 63.6 231.851 63.6L235.351 58.14C236.051 57.02 236.471 56.46 237.171 56.46H264.331C265.031 56.46 265.451 57.02 266.151 58.14L269.511 63.32C269.511 63.32 269.791 63.74 269.791 64.16C269.791 64.44 269.511 64.72 268.951 64.72H258.451C257.751 64.72 257.191 65.28 257.191 65.98C257.191 78.44 254.671 98.46 254.671 99.72C254.671 100.98 255.651 100.98 255.931 100.98C264.051 100.98 267.551 94.12 272.451 94.12C277.351 94.12 275.811 98.18 278.611 98.18C281.411 98.18 279.871 94.12 284.771 94.12C289.671 94.12 292.891 100.98 301.291 100.98C301.571 100.98 302.551 100.98 302.551 99.72C302.551 98.46 300.031 78.44 300.031 65.98ZM258.871 48.9H242.631C242.071 48.9 241.791 48.62 241.791 48.34C241.791 47.92 242.071 47.5 242.071 47.5L247.391 38.68C248.091 37.56 248.511 37 249.211 37H252.151C252.851 37 253.271 37.56 253.971 38.68L259.431 47.5C259.431 47.5 259.711 47.92 259.711 48.34C259.711 48.62 259.431 48.9 258.871 48.9Z" fill="#FF1C31"/>
<path d="M380.839 0.73999C372.719 0.73999 369.219 7.59999 364.319 7.59999C359.419 7.59999 360.819 3.54 358.159 3.54C355.359 3.54 356.899 7.59999 351.999 7.59999C348.499 7.59999 345.699 3.95999 337.999 3.95999C330.439 3.95999 327.359 7.59999 323.999 7.59999C319.099 7.59999 320.639 3.54 317.839 3.54C315.039 3.54 316.579 7.59999 311.679 7.59999C306.779 7.59999 303.559 0.73999 295.159 0.73999C294.879 0.73999 293.899 0.73999 293.899 1.99999C293.899 3.25999 296.419 23.28 296.419 35.74V47.08C296.419 47.78 296.979 48.34 297.679 48.34H305.239C305.939 48.34 306.499 47.78 306.499 47.08V45.82C306.499 40.92 310.419 37 315.319 37H331.699C332.399 37 332.959 37.56 332.959 38.26V63.46C332.959 64.16 332.399 64.72 331.699 64.72H317.839C317.139 64.72 316.579 65.28 316.579 65.98C316.579 78.44 314.059 98.46 314.059 99.72C314.059 100.98 315.179 100.98 315.319 100.98C323.439 100.98 326.939 94.12 331.839 94.12C336.739 94.12 335.199 98.18 337.999 98.18C340.659 98.18 339.259 94.12 344.159 94.12C349.059 94.12 352.279 100.98 360.679 100.98C360.819 100.98 361.939 100.98 361.939 99.72C361.939 98.46 359.419 78.44 359.419 65.98C359.419 65.28 358.859 64.72 358.159 64.72H344.299C343.599 64.72 343.039 64.16 343.039 63.46V38.26C343.039 37.56 343.599 37 344.299 37H360.679C365.579 37 369.499 40.92 369.499 45.82V47.08C369.499 47.78 370.059 48.34 370.759 48.34H378.319C379.019 48.34 379.579 47.78 379.579 47.08V35.74C379.579 23.28 382.099 3.25999 382.099 1.99999C382.099 0.73999 380.979 0.73999 380.839 0.73999Z" fill="#FF1C31"/>
</svg>

<svg xmlns="http://www.w3.org/2000/svg" fill="none" viewBox="0 0 383 101"><path fill="#FF1C31" d="M87.851.74c-8.12 0-11.62 6.86-16.52 6.86s-3.5-4.06-6.16-4.06c-2.8 0-1.26 4.06-6.16 4.06-3.5 0-6.3-3.64-14-3.64-7.56 0-10.64 3.64-14 3.64-4.9 0-3.36-4.06-6.16-4.06-2.8 0-1.26 4.06-6.16 4.06S10.571.74 2.171.74C1.891.74.911.74.911 2s2.52 21.28 2.52 33.74v11.34c0 .7.56 1.26 1.26 1.26h7.56c.7 0 1.26-.56 1.26-1.26v-1.26c0-4.9 3.92-8.82 8.82-8.82h16.38c.7 0 1.26.56 1.26 1.26v25.2c0 .7-.56 1.26-1.26 1.26h-13.86c-.7 0-1.26.56-1.26 1.26 0 12.46-2.52 32.48-2.52 33.74 0 1.26 1.12 1.26 1.26 1.26 8.12 0 11.62-6.86 16.52-6.86s3.36 4.06 6.16 4.06c2.66 0 1.26-4.06 6.16-4.06s8.12 6.86 16.52 6.86c.14 0 1.26 0 1.26-1.26s-2.52-21.28-2.52-33.74c0-.7-.56-1.26-1.26-1.26h-13.86c-.7 0-1.26-.56-1.26-1.26v-25.2c0-.7.56-1.26 1.26-1.26h16.38c4.9 0 8.82 3.92 8.82 8.82v1.26c0 .7.56 1.26 1.26 1.26h7.56c.7 0 1.26-.56 1.26-1.26V35.74c0-12.46 2.52-32.48 2.52-33.74 0-1.26-1.12-1.26-1.26-1.26zM192.28 64.72h-13.86c-.7 0-1.26-.56-1.26-1.26v-25.2c0-.7.56-1.26 1.26-1.26h13.86c.7 0 1.26-.56 1.26-1.26 0-12.46 2.52-32.48 2.52-33.74 0-1.26-.98-1.26-1.26-1.26-8.12 0-11.62 6.86-16.52 6.86s-3.36-4.06-6.16-4.06c-2.8 0-1.26 4.06-6.16 4.06S157.84.74 149.44.74c-.28 0-1.26 0-1.26 1.26s2.52 21.28 2.52 33.74c0 .7.56 1.26 1.26 1.26h13.86c.7 0 1.26.56 1.26 1.26v7.56c0 .7-.56 1.26-1.26 1.26H125.5c-.7 0-1.26-.56-1.26-1.26v-7.56c0-.7.56-1.26 1.26-1.26h13.86c.7 0 1.26-.56 1.26-1.26 0-12.46 2.52-32.48 2.52-33.74 0-1.26-1.12-1.26-1.26-1.26-8.12 0-11.62 6.86-16.52 6.86S122 3.54 119.2 3.54c-2.8 0-1.26 4.06-6.16 4.06S104.92.74 96.52.74c-.28 0-1.26 0-1.26 1.26s2.52 21.28 2.52 33.74c0 .7.56 1.26 1.26 1.26h13.86c.7 0 1.26.56 1.26 1.26v25.2c0 .7-.56 1.26-1.26 1.26H99.04c-.7 0-1.26.56-1.26 1.26 0 12.46-2.52 32.48-2.52 33.74 0 1.26.98 1.26 1.26 1.26 8.12 0 11.62-6.86 16.52-6.86s3.36 4.06 6.16 4.06c2.8 0 1.26-4.06 6.16-4.06s8.12 6.86 16.52 6.86c.14 0 1.26 0 1.26-1.26s-2.52-21.28-2.52-33.74c0-.7-.56-1.26-1.26-1.26H125.5c-.7 0-1.26-.56-1.26-1.26V55.9c0-.7.56-1.26 1.26-1.26h40.32c.7 0 1.26.56 1.26 1.26v7.56c0 .7-.56 1.26-1.26 1.26h-13.86c-.7 0-1.26.56-1.26 1.26 0 12.46-2.52 32.48-2.52 33.74 0 1.26.98 1.26 1.26 1.26 8.12 0 11.62-6.86 16.52-6.86s3.36 4.06 6.16 4.06c2.8 0 1.26-4.06 6.16-4.06s8.12 6.86 16.52 6.86c.28 0 1.26 0 1.26-1.26s-2.52-21.28-2.52-33.74c0-.7-.56-1.26-1.26-1.26zM300.031 65.98c0-.7-.56-1.26-1.26-1.26h-11.76c-.7 0-1.4 0-2.1-1.12l-16.1-25.2s-.28-.42-.28-.84c0-.28.28-.56.84-.56h2.94c.7 0 1.26-.56 1.26-1.26 0-12.46 2.52-32.48 2.52-33.74 0-1.26-1.12-1.26-1.26-1.26-8.12 0-11.62 6.86-16.52 6.86s-3.36-4.06-6.16-4.06c-2.8 0-1.26 4.06-6.16 4.06s-8.12-6.86-16.52-6.86c-.28 0-1.26 0-1.26 1.26s2.52 21.28 2.52 33.74c0 .7.56 1.26 1.26 1.26h4.62c.56 0 .84.28.84.56 0 .42-.28.84-.28.84l-15.68 24.64c-.7 1.12-1.12 1.68-1.82 1.68h-14.14c-.7 0-1.26.56-1.26 1.26 0 12.46-2.52 32.48-2.52 33.74 0 1.26.98 1.26 1.26 1.26 8.12 0 11.62-6.86 16.52-6.86s3.36 4.06 6.16 4.06c2.8 0 1.26-4.06 6.16-4.06s8.12 6.86 16.52 6.86c.14 0 1.26 0 1.26-1.26s-2.52-21.28-2.52-33.74c0-.7-.56-1.26-1.26-1.26h-13.3c-.56 0-.98 0-.98-.28 0-.42.28-.84.28-.84l3.5-5.46c.7-1.12 1.12-1.68 1.82-1.68h27.16c.7 0 1.12.56 1.82 1.68l3.36 5.18s.28.42.28.84c0 .28-.28.56-.84.56h-10.5c-.7 0-1.26.56-1.26 1.26 0 12.46-2.52 32.48-2.52 33.74 0 1.26.98 1.26 1.26 1.26 8.12 0 11.62-6.86 16.52-6.86s3.36 4.06 6.16 4.06c2.8 0 1.26-4.06 6.16-4.06s8.12 6.86 16.52 6.86c.28 0 1.26 0 1.26-1.26s-2.52-21.28-2.52-33.74zm-41.16-17.08h-16.24c-.56 0-.84-.28-.84-.56 0-.42.28-.84.28-.84l5.32-8.82c.7-1.12 1.12-1.68 1.82-1.68h2.94c.7 0 1.12.56 1.82 1.68l5.46 8.82s.28.42.28.84c0 .28-.28.56-.84.56zM380.839.74c-8.12 0-11.62 6.86-16.52 6.86s-3.5-4.06-6.16-4.06c-2.8 0-1.26 4.06-6.16 4.06-3.5 0-6.3-3.64-14-3.64-7.56 0-10.64 3.64-14 3.64-4.9 0-3.36-4.06-6.16-4.06-2.8 0-1.26 4.06-6.16 4.06s-8.12-6.86-16.52-6.86c-.28 0-1.26 0-1.26 1.26s2.52 21.28 2.52 33.74v11.34c0 .7.56 1.26 1.26 1.26h7.56c.7 0 1.26-.56 1.26-1.26v-1.26c0-4.9 3.92-8.82 8.82-8.82h16.38c.7 0 1.26.56 1.26 1.26v25.2c0 .7-.56 1.26-1.26 1.26h-13.86c-.7 0-1.26.56-1.26 1.26 0 12.46-2.52 32.48-2.52 33.74 0 1.26 1.12 1.26 1.26 1.26 8.12 0 11.62-6.86 16.52-6.86s3.36 4.06 6.16 4.06c2.66 0 1.26-4.06 6.16-4.06s8.12 6.86 16.52 6.86c.14 0 1.26 0 1.26-1.26s-2.52-21.28-2.52-33.74c0-.7-.56-1.26-1.26-1.26h-13.86c-.7 0-1.26-.56-1.26-1.26v-25.2c0-.7.56-1.26 1.26-1.26h16.38c4.9 0 8.82 3.92 8.82 8.82v1.26c0 .7.56 1.26 1.26 1.26h7.56c.7 0 1.26-.56 1.26-1.26V35.74c0-12.46 2.52-32.48 2.52-33.74 0-1.26-1.12-1.26-1.26-1.26z"/></svg>
